Obsidian-SemiLight/actions/24s/view-form-action.svg

<svg viewBox="0 0 24 24" xmlns="http://www.w3.org/2000/svg"><path d="m4 4v16h1 3 1 5 1v-1h-1-5-1-3v-11h14v5h1v-9h-1-14zm11.625 1 1.375.8125 1.375-.8125.625.8125-1.6875 1-.3125.1875-.3125-.1875-1.6875-1zm-7.625 4c-1.104569 0-2 .8954-2 2s.895431 2 2 2 2-.8954 2-2-.895431-2-2-2zm0 1c.552285 0 1 .4477 1 1s-.447715 1-1 1-1-.4477-1-1 .447715-1 1-1zm4 1v1h6v-1zm6 2-3 4.083984 2-.083984v3l3-4h-2zm-12 1v4h3 1v-1-3zm1 1h2v2h-2zm5 1v1h2v-1z" fill="#4d4d4d"/></svg>

<svg xmlns="http://www.w3.org/2000/svg" viewBox="0 0 24 24">
  <defs id="defs3051">
    <style type="text/css" id="current-color-scheme">
      .ColorScheme-Text {
        color:#4d4d4d;
      }
      </style>
  </defs>
 <path style="fill:currentColor;fill-opacity:1;stroke:none" 
     d="M 4 4 L 4 20 L 5 20 L 8 20 L 9 20 L 14 20 L 15 20 L 15 19 L 14 19 L 9 19 L 8 19 L 5 19 L 5 8 L 19 8 L 19 13 L 20 13 L 20 4 L 19 4 L 5 4 L 4 4 z M 15.625 5 L 17 5.8125 L 18.375 5 L 19 5.8125 L 17.3125 6.8125 L 17 7 L 16.6875 6.8125 L 15 5.8125 L 15.625 5 z M 8 9 C 6.895431 9 6 9.8954 6 11 C 6 12.1046 6.895431 13 8 13 C 9.104569 13 10 12.1046 10 11 C 10 9.8954 9.104569 9 8 9 z M 8 10 C 8.552285 10 9 10.4477 9 11 C 9 11.5523 8.552285 12 8 12 C 7.447715 12 7 11.5523 7 11 C 7 10.4477 7.447715 10 8 10 z M 12 11 L 12 12 L 18 12 L 18 11 L 12 11 z M 18 13 L 15 17.083984 L 17 17 L 17 20 L 20 16 L 18 16 L 18 13 z M 6 14 L 6 18 L 9 18 L 10 18 L 10 17 L 10 14 L 6 14 z M 7 15 L 9 15 L 9 17 L 7 17 L 7 15 z M 12 16 L 12 17 L 14 17 L 14 16 L 12 16 z "
     class="ColorScheme-Text"
     />
</svg>
